X:1
T:Devil and the Farmer's Wife
M:6/8
L:1/8
K:C
 z4 z G,| C2 E C2 E| CCE G,3| G2 G GEF| G G2- G2 E| G2 G G2 E| FFF G2 F|\
 E2 E GGE| C2 E DED| C2 E C2 E| DCE DCA,| C2 A, G,A,B,| C2 C3 z|
